tools/download-figma-icons/icons/solid/wave.svg

<svg width="24" height="25" viewBox="0 0 24 25" fill="none" xmlns="http://www.w3.org/2000/svg">
<path d="M22.875 11.8895L17.7 20.132C16.5825 21.9395 14.73 23.222 12.4875 23.747C11.76 23.9195 11.01 24.002 10.2675 24.002C8.42247 24.002 6.58497 23.492 5.00997 22.502C0.592465 19.742 0.749965 14.4545 0.749965 14.237V3.75197C0.749965 3.37697 1.01997 3.06197 1.38747 3.00947C1.45497 2.99447 2.96247 2.78447 4.09497 3.75947C4.86747 4.41947 5.25747 5.43197 5.25747 6.75197C5.26497 7.47197 5.49747 8.67947 5.98497 8.97197C5.99247 8.97197 5.99997 8.97947 6.01497 8.97947C6.10497 8.88947 6.23247 8.67947 6.30747 8.55197L10.5225 1.93697C11.25 0.759475 12.8175 0.391975 14.0025 1.12697C14.3025 1.30697 14.5575 1.55447 14.7525 1.83197L15.12 1.21697C15.48 0.631975 16.035 0.226975 16.695 0.0694749C17.355 -0.088025 18.0375 0.024475 18.615 0.384475C19.185 0.736975 19.59 1.29947 19.7475 1.95947C19.89 2.56697 19.7925 3.18947 19.5 3.73697C19.86 3.77447 20.22 3.88697 20.55 4.08947C21.735 4.82447 22.1025 6.39197 21.3675 7.58447L21.0675 8.06447C21.405 8.10197 21.7425 8.21447 22.05 8.40197C23.235 9.13697 23.61 10.7045 22.875 11.8895Z" fill="black"/>
</svg>

<svg xmlns="http://www.w3.org/2000/svg" width="24" height="25" fill="none" viewBox="0 0 24 25"><path fill="currentColor" d="M22.875 11.89 17.7 20.132c-1.117 1.807-2.97 3.09-5.212 3.615a9.9 9.9 0 0 1-7.478-1.245C.592 19.742.75 14.455.75 14.237V3.752c0-.375.27-.69.637-.743.068-.015 1.575-.225 2.708.75.772.66 1.162 1.673 1.162 2.993.008.72.24 1.927.728 2.22.007 0 .015.007.03.007.09-.09.217-.3.292-.427l4.216-6.615a2.533 2.533 0 0 1 3.48-.81c.3.18.554.427.75.705l.367-.615a2.52 2.52 0 0 1 3.495-.833c.57.353.975.915 1.133 1.575.142.608.044 1.23-.248 1.778.36.037.72.15 1.05.352a2.546 2.546 0 0 1 .817 3.495l-.3.48a2.4 2.4 0 0 1 .983.338 2.54 2.54 0 0 1 .825 3.488"/></svg>
